X:450
T:Leaving Lismore
T:The Isle of Lismore
R:Valse écossaise
S:Cathy Boyer
Z:Nigel Gatherer <gatherer:argonet.co.uk> scots-l 2002-11-18
M:3/4
L:1/4
K:D
D>EF | A2d | BAF | AFE | D>EF | A2A | B    AF | E2 A, |
D>EF | A2d | BAF | A3  | ABd  | F2E | F/E/ D2 | D3   :|
d>cd | B2A | BAF | A3  | d>cd | B2A | B    AF | E3    |
d>cd | B2A | BAF | A3  | ABd  | F2E | F/E/ D2 | D3    |
d>cd | B2A | BAF | A3  | d>cd | B2A | B    AF | E3    |
D>EF | A2d | BAF | A3  | ABd  | F2E | F/E/ D2 | D3   |]
